assets/icons/qvision/liquor.svg

<svg xmlns="http://www.w3.org/2000/svg" enable-background="new 0 0 24 24" height="24" viewBox="0 0 24 24" width="24"><g><rect fill="none" height="24" width="24"/></g><g><g><g><path d="M3,14c0,1.3,0.84,2.4,2,2.82V20H3v2h6v-2H7v-3.18C8.16,16.4,9,15.3,9,14V6H3V14z M5,8h2v3H5V8z"/></g><g><path d="M20.63,8.54l-0.95-0.32C19.28,8.09,19,7.71,19,7.28V3c0-0.55-0.45-1-1-1h-3c-0.55,0-1,0.45-1,1v4.28 c0,0.43-0.28,0.81-0.68,0.95l-0.95,0.32C11.55,8.82,11,9.58,11,10.44V20c0,1.1,0.9,2,2,2h7c1.1,0,2-0.9,2-2v-9.56 C22,9.58,21.45,8.82,20.63,8.54z M16,4h1v1h-1V4z M13,10.44l0.95-0.32C15.18,9.72,16,8.57,16,7.28V7h1v0.28 c0,1.29,0.82,2.44,2.05,2.85L20,10.44V12h-7V10.44z M20,20h-7v-2h7V20z"/></g></g></g></svg>

<svg width="24" height="24" viewBox="0 0 24 24" fill="none" xmlns="http://www.w3.org/2000/svg">
<g clip-path="url(#clip0_147_5358)">
<path d="M3 14C3 15.3 3.84 16.4 5 16.82V20H3V22H9V20H7V16.82C8.16 16.4 9 15.3 9 14V6H3V14ZM5 8H7V11H5V8Z" fill="#323232"/>
<path d="M20.63 8.54L19.68 8.22C19.28 8.09 19 7.71 19 7.28V3C19 2.45 18.55 2 18 2H15C14.45 2 14 2.45 14 3V7.28C14 7.71 13.72 8.09 13.32 8.23L12.37 8.55C11.55 8.82 11 9.58 11 10.44V20C11 21.1 11.9 22 13 22H20C21.1 22 22 21.1 22 20V10.44C22 9.58 21.45 8.82 20.63 8.54ZM16 4H17V5H16V4ZM13 10.44L13.95 10.12C15.18 9.72 16 8.57 16 7.28V7H17V7.28C17 8.57 17.82 9.72 19.05 10.13L20 10.44V12H13V10.44ZM20 20H13V18H20V20Z" fill="#323232"/>
</g>
<defs>
<clipPath id="clip0_147_5358">
<rect width="24" height="24" fill="white"/>
</clipPath>
</defs>
</svg>
